X:1
T:Vaneggiamenti Amorosi
T:Giovanni Stefani
T:Source : Affatti amorosi-Canzonette ad una voce sola---Venetia---A.Vincenti---1621. Editor : André Vierendeels (15/11/15).
T:Notes : Original clefs : C1, F4 Editorial accidentals above the staff Note values have been halved Alfabetto et intavolatura per chitarra Spagnola Terza impressione (first print : 1618) 
T:O begl'occhi- Vaneggiamenti amorosi
C:Giovanni Stefani
%%score 1 { ( 2 3 ) | 4 }
L:1/8
Q:1/4=80
M:3/4
K:F
V:1 treble nm="Soprano" snm="S"
V:2 treble nm="BC" snm="BC"
V:3 treble 
V:4 bass 
V:1
 z2 G2 A2 | B4 B2 | c4 c2 | d4 d2 | z2 c2 B2 | A4 c2 | c4 =B2 | c4 c2 | z2 G2 A2 | B4 A2 | A4 G2 | %11
w: O begl'|oc- chi'o|bel- le|chio- me|che m'ar-|de- t'e|mi le-|ga- te,|senz' ha-|ver gia|mai pie-|
w: Dol- ce|fiam- ma'e|dol- ce|lac- cio,|che strin-|gen- do|mi strug-|ge- te,|deh pie-|ta di|me pren-|
w: Al- tro|mo- do'e|al- tro|fo- co,|non mi|strin- ga'e|non m'ac-|cen- da,|non m'ab-|brac- ci'e|non mi|
w: Vi- vi|rag- gi'e|bei le-|ga- mi,|poi ch'in|voi non|è pie-|ta- de,-|ma sol|fe- ra|cru- del-|
 G4 G2 :: z2 F2 G2 | AB AB c2 | d2 G3 G | A4 A2 | z2 B2 c2 | d4 _e2 | c4 B2 | B4 B2 | B2 c2 d2 | %21
w: ta- de,|deh fra'i|lac- * * * *|ci'e fra l'ar-|do- re,|ri- mi-|ra- te|chi si|muo- re,|begl' oc- chi|
w: de- te,|che ben|de- * * * *|gno'e di mer-|ce- de,|il mio'a-|mor, e|la mia|fe- de,|so- a- vi'ar-|
w: pren- da,|che per|voi _ _ _ _|sol lie- to'io|mo- ro,|O begl'|oc- chi'o|bei crin|d'o- ro,|com' au- gel-|
w: ta- de:|que- sto|cor _ _ _ _|quan- to vo-|le- te,|strac- ci-|a- t'e|di strug-|ge- te,|nel mio tor-|
 _e4 d2 | c2 B2 c2 | d4 c2 | B2 A2 B2 | c4 B2 | A2 G2 A2 | B4 A2 | G2 F2 G2 | A4 G2 | F2 E2 F2 | %31
w: ca- ri|del sol piu|chia- ri,|va- ghi ca-|pel- li|dell' or piu|bel- li,|di piu bru-|ciar- mi,|di piu le-|
w: do- ri,|dol- ce do-|lo- ri,|dol- ci ca-|te- ne,|ca- re mie|pe- ne,|s'io per voi|sen- to,|nel sen tor-|
w: let- to,|ne lac- ci|stret- to,|co- me nel|fo- co,|a po- co,|po- co,|muor la fe-|ni- ce,|co- s'in- fe-|
w: men- to,|go- dro con-|ten- to,|nel mio mo-|ri- re,|po- tro pur|di- re,|begl'' oc- chi'a-|ma- ti,|bei crin do-|
 G2 G2 A2 | A4 A2 | G4 !fermata!G2 :| %34
w: gar- mi,- la-|scia- te'il|co- re.|
w: men- to, di-|ca- lo'A-|mo- re.|
w: li- ce, mia|vi- ta|muo- re.|
w: ra- ti, vo-|el' ho-|no- re.|
V:2
 B6 | d6 | c6 | B6 | F6 | A6 | c2 d4 | c6 | G4 c2 | B4 c2 | A4 G2 | G6 :: G2 A4 | A6 | A2 B4 | A6 | %16
 d4 c2 | B6 | A6 | F6 | B2 A2 G2 | c4 d2 | A2 B2 A2 | F4 A2 | B6 | A4 B2 | c6 | B4 c2 | E2 A2 G2 | %29
 F4 G2 | A2 c2 A2 | B4 c2 | d6 | !fermata!=B6 :| %34
V:3
 D6 | G6 | A6 | F6 | D6 | C4 E2 | A2 G4 | E6 | E6 | D4 E2 | ^F2 E2 C2 | D6 :: D6 | C6 | F2 _E2 G2 | %15
 ^F6 | A4 E2 | F4 G2 | F6 | D6 | D6 | G4 G2 | C2 D2 C2 | D4 E2 | D6 | E4 D2 | A6 | D4 F2 | %28
 C2 F2 C2 | C4 E2 | F2 G2 F2 | G4 _E2 | G4 ^F2 | !fermata!G6 :| %34
V:4
 G,6 | G,6 | F,6 | B,,6 | B,2 A,2 G,2 | F,3 G, A,2 | F,2 G,4 | C,6 | C,2 B,,2 A,,2 | %9
 G,,2 F,,2 E,,2 | D,,2 C,,2 D,,2 | G,,6 :: G,2 D,2 E,2 | F,6 | D,2 _E,4 | D,6 | D,4 C,2 | B,,6 | %18
 F,6 | B,,6 | G,2 A,2 B,2 | C4 B,2 | A,2 G,2 A,2 | B,4 A,2 | G,2 F,2 G,2 | A,4 G,2 | F,2 E,2 F,2 | %27
 G,4 F,2 | E,2 D,2 E,2 | F,4 E,2 | D,2 C,2 D,2 | _E,4 C,2 | D,6 | !fermata!G,,6 :| %34

